src/assets/images/Icon-4.svg

<svg width="80" height="80" viewBox="0 0 80 80" fill="none" xmlns="http://www.w3.org/2000/svg">
<path d="M40 6.1015C21.3082 6.1015 6.1015 21.3082 6.1015 40C6.1015 58.6918 21.3082 73.8985 40 73.8985C58.6918 73.8985 73.8985 58.6918 73.8985 40C73.8985 21.3082 58.6918 6.1015 40 6.1015ZM40 67.122C25.046 67.122 12.878 54.955 12.878 40C12.878 25.045 25.0455 12.878 40 12.878C54.9545 12.878 67.122 25.0455 67.122 40C67.122 54.9545 54.9545 67.122 40 67.122Z" fill="white"/>
<path d="M18.475 47.7291C18.0374 47.7291 17.6703 47.6303 17.3738 47.4326C17.0774 47.2209 16.8938 46.9385 16.8233 46.5856C16.7527 46.2185 16.8162 45.8091 17.0138 45.3573L22.2868 34.0067C22.5409 33.4562 22.8515 33.0538 23.2185 32.7997C23.5997 32.5456 24.0303 32.4185 24.5103 32.4185C24.9903 32.4185 25.4068 32.5456 25.7597 32.7997C26.1268 33.0538 26.4444 33.4562 26.7127 34.0067L31.9856 45.3573C32.2115 45.8091 32.2891 46.2185 32.2185 46.5856C32.1621 46.9526 31.9856 47.235 31.6891 47.4326C31.4068 47.6303 31.0538 47.7291 30.6303 47.7291C30.0656 47.7291 29.628 47.602 29.3174 47.3479C29.0209 47.0938 28.7527 46.6844 28.5127 46.1197L27.3691 43.4303L28.8515 44.5103H20.1268L21.6303 43.4303L20.4868 46.1197C20.2327 46.6844 19.9715 47.0938 19.7033 47.3479C19.435 47.602 19.0256 47.7291 18.475 47.7291ZM24.468 36.675L22.0115 42.5409L21.4185 41.5244H27.5809L26.988 42.5409L24.5103 36.675H24.468ZM36.5956 47.5385C35.9321 47.5385 35.4239 47.3691 35.0709 47.0303C34.7321 46.6773 34.5627 46.1762 34.5627 45.5267V34.6209C34.5627 33.9715 34.7321 33.4773 35.0709 33.1385C35.4239 32.7856 35.9321 32.6091 36.5956 32.6091H40.7462C43.3439 32.6091 45.3486 33.2585 46.7603 34.5573C48.1862 35.8562 48.8992 37.6915 48.8992 40.0632C48.8992 41.2491 48.7156 42.3079 48.3486 43.2397C47.9815 44.1573 47.4521 44.9409 46.7603 45.5903C46.0686 46.2256 45.2144 46.7126 44.198 47.0515C43.1956 47.3762 42.045 47.5385 40.7462 47.5385H36.5956ZM38.4592 44.3832H40.4921C41.2403 44.3832 41.8827 44.2915 42.4192 44.1079C42.9697 43.9244 43.4215 43.6562 43.7744 43.3032C44.1415 42.9503 44.4097 42.5056 44.5792 41.9691C44.7627 41.4326 44.8544 40.7973 44.8544 40.0632C44.8544 38.595 44.4944 37.515 43.7744 36.8232C43.0544 36.1173 41.9603 35.7644 40.4921 35.7644H38.4592V44.3832ZM57.3937 47.7715C56.829 47.7715 56.2361 47.7291 55.6149 47.6444C55.0079 47.5738 54.429 47.4609 53.8784 47.3056C53.3279 47.1503 52.8337 46.9667 52.3961 46.755C52.0149 46.5715 51.7467 46.3315 51.5914 46.035C51.4361 45.7244 51.3796 45.3997 51.422 45.0609C51.4643 44.722 51.5843 44.4256 51.782 44.1715C51.9796 43.9032 52.2408 43.7267 52.5655 43.642C52.8902 43.5432 53.2573 43.5856 53.6667 43.7691C54.2031 44.0232 54.8102 44.2209 55.4879 44.362C56.1655 44.5032 56.8008 44.5738 57.3937 44.5738C58.3255 44.5738 58.9749 44.4538 59.342 44.2138C59.7231 43.9597 59.9137 43.6491 59.9137 43.282C59.9137 42.9573 59.7796 42.6962 59.5114 42.4985C59.2573 42.3009 58.7984 42.1315 58.1349 41.9903L55.6573 41.4609C54.302 41.1785 53.2926 40.6844 52.629 39.9785C51.9655 39.2726 51.6337 38.362 51.6337 37.2467C51.6337 36.5126 51.782 35.8491 52.0784 35.2562C52.389 34.6491 52.8196 34.1338 53.3702 33.7103C53.9349 33.2867 54.5984 32.962 55.3608 32.7362C56.1373 32.4962 56.9984 32.3762 57.9443 32.3762C58.6784 32.3762 59.4196 32.4609 60.1679 32.6303C60.9302 32.7856 61.5867 33.0256 62.1373 33.3503C62.462 33.5197 62.6949 33.7526 62.8361 34.0491C62.9773 34.3456 63.0337 34.6562 63.0055 34.9809C62.9773 35.2915 62.8643 35.5667 62.6667 35.8067C62.4831 36.0467 62.229 36.2091 61.9043 36.2938C61.5937 36.3644 61.2196 36.3079 60.782 36.1244C60.3726 35.9409 59.9067 35.8067 59.3843 35.722C58.8761 35.6232 58.382 35.5738 57.902 35.5738C57.3796 35.5738 56.9349 35.6373 56.5679 35.7644C56.2008 35.8773 55.9184 36.0467 55.7208 36.2726C55.5373 36.4985 55.4455 36.7597 55.4455 37.0562C55.4455 37.3526 55.5655 37.6067 55.8055 37.8185C56.0596 38.0162 56.5184 38.1856 57.182 38.3267L59.6384 38.8562C61.0079 39.1526 62.0314 39.6397 62.709 40.3173C63.3867 40.995 63.7255 41.8773 63.7255 42.9644C63.7255 43.6985 63.5773 44.362 63.2808 44.955C62.9843 45.5479 62.5608 46.0562 62.0102 46.4797C61.4596 46.8891 60.7961 47.2067 60.0196 47.4326C59.2431 47.6585 58.3679 47.7715 57.3937 47.7715Z" fill="white"/>
<rect x="60.654" y="14.0679" width="4.70588" height="65.8824" rx="2.35294" transform="rotate(45 60.654 14.0679)" fill="white"/>
</svg>

<svg xmlns="http://www.w3.org/2000/svg" width="80" height="80" fill="none"><path fill="#fff" d="M40 6.101C21.308 6.101 6.102 21.309 6.102 40S21.308 73.898 40 73.898c18.692 0 33.898-15.206 33.898-33.898C73.898 21.308 58.692 6.102 40 6.102Zm0 61.021c-14.954 0-27.122-12.167-27.122-27.122S25.046 12.878 40 12.878c14.955 0 27.122 12.168 27.122 27.122 0 14.955-12.167 27.122-27.122 27.122Z"/><path fill="#fff" d="M18.475 47.73c-.438 0-.805-.1-1.101-.297a1.327 1.327 0 0 1-.55-.847c-.071-.367-.008-.777.19-1.229l5.273-11.35c.254-.55.565-.953.931-1.207a2.276 2.276 0 0 1 1.292-.381c.48 0 .897.127 1.25.38.367.255.684.657.953 1.208l5.273 11.35c.226.452.303.861.232 1.229-.056.367-.232.649-.529.847-.282.197-.635.296-1.059.296-.564 0-1.002-.127-1.313-.381-.296-.254-.564-.664-.804-1.228l-1.144-2.69 1.483 1.08h-8.725l1.503-1.08-1.143 2.69c-.254.564-.515.974-.784 1.228-.268.254-.677.381-1.228.381Zm5.993-11.055-2.456 5.866-.593-1.017h6.162l-.593 1.017-2.478-5.866h-.042Zm12.128 10.864c-.664 0-1.172-.17-1.525-.509-.339-.353-.508-.854-.508-1.503V34.62c0-.65.17-1.144.508-1.483.353-.352.861-.529 1.525-.529h4.15c2.598 0 4.603.65 6.014 1.948 1.426 1.3 2.14 3.134 2.14 5.506 0 1.186-.184 2.245-.551 3.177a6.477 6.477 0 0 1-1.589 2.35c-.691.636-1.546 1.123-2.562 1.461-1.002.325-2.153.487-3.452.487h-4.15Zm1.863-3.156h2.033c.748 0 1.39-.092 1.927-.275.55-.184 1.003-.452 1.355-.805.367-.353.636-.797.805-1.334.184-.536.275-1.172.275-1.906 0-1.468-.36-2.548-1.08-3.24-.72-.706-1.814-1.059-3.282-1.059H38.46v8.62Zm18.935 3.389c-.565 0-1.158-.043-1.78-.128a11.123 11.123 0 0 1-1.736-.338 9.044 9.044 0 0 1-1.482-.551c-.381-.184-.65-.424-.805-.72a1.67 1.67 0 0 1-.169-.974c.042-.339.162-.635.36-.89.198-.268.459-.444.784-.529.324-.099.691-.056 1.1.127a8.104 8.104 0 0 0 1.822.593 9.368 9.368 0 0 0 1.906.212c.931 0 1.58-.12 1.948-.36.381-.254.572-.565.572-.932a.927.927 0 0 0-.403-.783c-.254-.198-.713-.367-1.376-.509l-2.478-.53c-1.355-.282-2.364-.776-3.028-1.482-.663-.705-.995-1.616-.995-2.731 0-.734.148-1.398.444-1.99a4.538 4.538 0 0 1 1.292-1.547 6.232 6.232 0 0 1 1.99-.974c.777-.24 1.638-.36 2.584-.36.734 0 1.476.085 2.224.254.762.156 1.419.396 1.97.72.324.17.557.403.698.7.141.296.198.606.17.93-.029.312-.142.587-.34.827-.183.24-.437.402-.762.487-.31.07-.684.014-1.122-.17a5.601 5.601 0 0 0-1.398-.402 7.76 7.76 0 0 0-1.482-.148c-.522 0-.967.063-1.334.19-.367.113-.65.283-.847.509a1.207 1.207 0 0 0-.275.783c0 .297.12.55.36.763.254.197.712.367 1.376.508l2.456.53c1.37.296 2.393.783 3.071 1.46.678.678 1.016 1.56 1.016 2.647 0 .735-.148 1.398-.444 1.991a4.38 4.38 0 0 1-1.27 1.525c-.551.41-1.215.727-1.991.953-.777.225-1.652.339-2.626.339Z"/><rect width="4.706" height="65.882" x="60.654" y="14.068" fill="#fff" rx="2.353" transform="rotate(45 60.654 14.068)"/></svg>
